storage/app/icons/phosphoricons/duotone/door-open-duotone.svg

<svg xmlns="http://www.w3.org/2000/svg" fill="currentColor" viewBox="0 0 256 256"><path d="M200 40v184h-32V32h24a8 8 0 0 1 8 8" opacity=".2"/><path d="M232 216h-24V40a16 16 0 0 0-16-16H64a16 16 0 0 0-16 16v176H24a8 8 0 0 0 0 16h208a8 8 0 0 0 0-16m-40 0h-16V40h16ZM64 40h96v176H64Zm80 92a12 12 0 1 1-12-12 12 12 0 0 1 12 12"/></svg>

<svg xmlns="http://www.w3.org/2000/svg" viewBox="0 0 256 256" fill="currentColor"><path d="M200,40V224H168V32h24A8,8,0,0,1,200,40Z" opacity="0.2"/><path d="M232,216H208V40a16,16,0,0,0-16-16H64A16,16,0,0,0,48,40V216H24a8,8,0,0,0,0,16H232a8,8,0,0,0,0-16Zm-40,0H176V40h16ZM64,40h96V216H64Zm80,92a12,12,0,1,1-12-12A12,12,0,0,1,144,132Z"/></svg>
